X: 35816
T: Salthill Prom
R: reel
M: 4/4
K: Gmajor
DG~G2 Bcde|fdge fdce|dgfd cedc|~B2cA dcAF|
DG~G2 Bcde|fdge fdce|d2 (3ABc defg|adcA dGG2:|
|:g2dc (3Bcd GB|ADFG ABce|d2 (3Bcd ~g3a|b2ag fdef|
g2dc (3Bcd GB|ADFG Adef|g2ag fdde|1 fdge fdef:|2 fdge fdcA||

